X:1
T:Ready
T:Charles Davis Tillman, 1903
T:Ready
T:Public Domain
T:Public Domain
C:Charles Davis Tillman, 1903
Z:Public Domain
%%score 1 ( 2 3 )
L:1/8
M:9/8
K:F
V:1 treble 
V:2 bass 
V:3 bass 
V:1
 [FA][FA][FA] | ([FA]3 [CF]3) ([Fc][Fc])[Fc] | [Fc]6 [Ec][EG][EA] | [EB]3 [Ec]3 | %4
w: 1.~Read- y to|suffer * grief * or|pain, Read- y to|stand the|
w: 2.~Read- y to|go, * ready * to|bear, Read- y to|watch and|
w: 3.~Read- y to|speak, * ready * to|think, Read- y with|heart and|
w: 4.~Read- y to|speak, * ready * to|warn, Read- y o’er|souls to|
 [FA]3- [FA]2 z [FA][FA][FA] | ([FA]3 [CF]3) ([Fc][Fc])[Fc] | [Fc]6 [Ec][EG][EA] | [EB]3 [CE]3 | %8
w: test, * Read- y to|stay~at * home * and|send O- thers if|He sees|
w: pray, * Read- y to|stand~a- * side * and|give, Till He shall|clear the|
w: brain, * Read- y to|stand~where * He * sees|fit, Read- y to|bear the|
w: yearn, * Ready in life,|read- * y * in|death, Read- y for|His re-|
 [CF]3- [CF]2 z ||"^Refrain" [Bd][Bd][Bd] | [Bd]6 [Ac][Ac][Ac] | [Ac]6 [Gc][EG][FA] | [GB]3 [Ec]3 | %13
w: best. *|||||
w: way. *|||||
w: strain. *|||||
w: turn. *|||||
 [FA]6 | [Fd][Fd][Fd] | [Fd]3 [FB]3 [Fc][Fc][Fc] | [Fc]6 [Ec][EG][FA] | [EB]3 [CE]3 | [CF]6 |] %19
w: ||||||
w: ||||||
w: ||||||
w: ||||||
V:2
 [F,C][F,C][F,C] | [F,C]3 [F,A,]3 ([F,A,][F,A,])[F,A,] | [F,A,]6 [C,G,][C,C][C,C] | %3
w: ~ ~ ~|~ ~ ~ * ~|~ ~ ~ ~|
 [C,G,]3 (G,2 C) | [F,C]3- [F,C]2 z [F,C][F,C][F,C] | ([F,C]3 [F,A,]3) ([F,A,][F,A,])[F,A,] | %6
w: ~ ~ *|~ * ~ ~ ~|~ * ~ * ~|
 [F,A,]6 [C,G,][C,B,][C,A,] | [C,G,]3 [C,B,]3 | [F,A,]3- [F,A,]2 z || [B,,B,F][B,,B,F][B,,B,F] | %10
w: ~ ~ ~ ~|~ ~|Read- *|y to go,|
 [B,,B,F]6 [F,F][F,F][F,F] | [F,F]6 [C,E][C,C][C,C] | [C,C]3 (G,2 C) | [F,C]6 | %14
w: read- y to stay,|Read- y my place|to fill, *|y|
 [B,,B,][B,,B,][B,,B,] | [B,,B,]3 [D,B,]3 [F,A,][F,A,][F,A,] | [F,A,]6 [C,G,][C,B,][C,A,] | %17
w: for serv- ice,|low- ly or great, Read-|y to do His|
 [C,G,]3 [C,B,]3 | [F,A,]6 |] %19
w: will. *||
V:3
 x3 | x9 | x9 | x3 C,3 | x9 | x9 | x9 | x6 | x6 || x3 | x9 | x9 | x3 C,3 | x6 | x3 | x9 | x9 | x6 | %18
w: |||~|||||||||Read-||||||
 x6 |] %19
w: |

